X:86
T: Jungfer Doertchen
N: Q0057Y
O: Mitteleuropa, Deutschland (DDR) , Brandenburg
N: Vierte und fuenfte Zeile = Refrain auf sinnfreie Silben.
R: Ballade, Todesahnung, Tod, Selbstmord
M: 3/4
L: 1/16
K: G
D2 | G2G2B6G2 | G2=F2E6
G2 | FFG2A4F4 | G2E2D4z4 |
G4D4 | E2D2D3
D | G2D2DD | E2D2
D2 | GGA2B4G4 | c2A2G4

@@@ Tune index: 962
